src/images/backend-logo-python.svg

<svg xmlns="http://www.w3.org/2000/svg" width="19" height="19" viewBox="0 0 19 19">
  <defs>
    <linearGradient id="python-logo-notext-a" x1="12.959%" x2="79.639%" y1="11.7%" y2="78.453%">
      <stop offset="0%" stop-color="#387EB8"/>
      <stop offset="100%" stop-color="#366994"/>
    </linearGradient>
    <linearGradient id="python-logo-notext-b" x1="19.128%" x2="90.742%" y1="20.316%" y2="88.773%">
      <stop offset="0%" stop-color="#FFE052"/>
      <stop offset="100%" stop-color="#FFC331"/>
    </linearGradient>
  </defs>
  <g fill="none">
    <path fill="url(#python-logo-notext-a)" d="M9.46875,0.168141593 C4.79679467,0.168141929 5.08854167,2.21211283 5.08854167,2.21211283 L5.09375,4.32964602 L9.55208333,4.32964602 L9.55208333,4.96543142 L3.32291667,4.96543142 C3.32291667,4.96543142 0.333333333,4.62338501 0.333333333,9.37914823 C0.333333,14.1349104 2.94270833,13.9662611 2.94270833,13.9662611 L4.5,13.9662611 L4.5,11.7594027 C4.5,11.7594027 4.416058,9.12693584 7.06770833,9.12693584 C9.71935833,9.12693584 11.4895833,9.12693584 11.4895833,9.12693584 C11.4895833,9.12693584 13.9739583,9.16745124 13.9739583,6.70464602 C13.9739583,4.24184147 13.9739583,2.63246681 13.9739583,2.63246681 C13.9739583,2.63246648 14.351155,0.168141593 9.46875,0.168141593 Z M7.01041667,1.59209071 C7.45398817,1.59209037 7.8125,1.95377521 7.8125,2.40127212 C7.81250033,2.84876904 7.45398817,3.21045354 7.01041667,3.21045354 C6.56684517,3.21045388 6.20833333,2.84876904 6.20833333,2.40127212 C6.208333,1.95377521 6.56684517,1.59209071 7.01041667,1.59209071 Z"/>
    <path fill="url(#python-logo-notext-b)" d="M9.60143333,18.6378398 C14.27339,18.6378398 13.9816417,16.5938686 13.9816417,16.5938686 L13.9764333,14.4763354 L9.5181,14.4763354 L9.5181,13.84055 L15.7472667,13.84055 C15.7472667,13.84055 18.73685,14.1825954 18.73685,9.4268315 C18.7368517,4.6710698 16.127475,4.83971918 16.127475,4.83971918 L14.5701833,4.83971918 L14.5701833,7.04657708 C14.5701833,7.04657708 14.6541267,9.67904389 12.002475,9.67904389 C9.35082467,9.67904389 7.58059967,9.67904389 7.58059967,9.67904389 C7.58059967,9.67904389 5.09622467,9.6385285 5.09622467,12.1013354 C5.09622467,14.5641389 5.09622467,16.1735146 5.09622467,16.1735146 C5.09622467,16.1735146 4.719028,18.6378398 9.60143333,18.6378398 Z M12.0597667,17.2138907 C11.616195,17.2138907 11.2576833,16.8522064 11.2576833,16.4047093 C11.2576833,15.9572122 11.616195,15.5955279 12.0597667,15.5955279 C12.5033383,15.5955279 12.86185,15.9572122 12.86185,16.4047093 C12.8618517,16.8522064 12.5033383,17.2138907 12.0597667,17.2138907 Z"/>
  </g>
</svg>

<svg xmlns="http://www.w3.org/2000/svg" width="190" height="190" viewBox="0 0 19 19"><defs><linearGradient id="a" x1="12.96%" x2="79.64%" y1="11.7%" y2="78.45%"><stop offset="0%" stop-color="#387EB8"/><stop offset="100%" stop-color="#366994"/></linearGradient><linearGradient id="b" x1="19.13%" x2="90.74%" y1="20.32%" y2="88.77%"><stop offset="0%" stop-color="#FFE052"/><stop offset="100%" stop-color="#FFC331"/></linearGradient></defs><g fill="none"><path fill="url(#a)" d="M9.47.17C4.8.17 5.09 2.2 5.09 2.2v2.12h4.46v.64H3.32S.33 4.62.33 9.37c0 4.76 2.61 4.6 2.61 4.6H4.5v-2.21s-.08-2.63 2.57-2.63h4.42s2.48.04 2.48-2.43V2.63S14.35.17 9.47.17zM7 1.59c.44 0 .8.36.8.81a.8.8 0 0 1-.8.81.8.8 0 0 1-.8-.8c0-.46.36-.82.8-.82z"/><path fill="url(#b)" d="M9.6 18.64c4.67 0 4.38-2.05 4.38-2.05v-2.11H9.52v-.64h6.23s2.99.34 2.99-4.41c0-4.76-2.61-4.59-2.61-4.59h-1.56v2.2s.08 2.64-2.57 2.64H7.58S5.1 9.64 5.1 12.1v4.07s-.38 2.47 4.5 2.47zm2.46-1.43a.8.8 0 0 1-.8-.8c0-.45.36-.81.8-.81a.8.8 0 0 1 0 1.62z"/></g></svg>
